X: 98
T: The Laurel Tree
B: begged borrowed and stolen
M:4/4
R: reel
Q: 1/4=100
K:Ador
V:1 
|:"Am"eA~A2 e2dc|"G"BAGA Bcdg|"Am"eA~A2 e2dc|"G"BAGA "Am"BA~A2|
"Am"eA~A2 e2dc|"G"BAGA Bcd2|"Am"~e3f "Em"gaaf|"G"gedB "Am"A2 (3Bcd:|
|"Am"eaag egdc|"G"BAGA Bcdg|"Am"eaag egdc|"G"BAGA "Am"BA~A2|
"Am"eaag egdc|"G"BAGA Bcd2|"Am"~e3f "Em"gaaf|"G"gedB "Am"A2 (3Bcd|
"Am"eaag egdc|"G"BAGA Bcdg|"Am"eaag a2ga|"G"bagb "Am"~a3g|
"Am"eaag egdc|"G"BAGA Bcd2|"Am"~e3f "Em"gaaf|"G"gedB "Am"A2 (3Bcd||
% abcbook-tune_id 628292927360bc0c8a6f94c3


% abcbook-boost 0
% abcbook-tablature 
% abcbook-transpose 
% abcbook-lastupdated 1652725458947
% abcbook-soundfonts 
% abcbook-repeats 3


